!!! OTL: Berkowitz71
!!! Chapter: 1
!!! Section: I
!!! Page: 19
!!! Mode: 
!!! Encoder: DJB
**kern
*staff1
*I"Piano
=1-
*clefG2
*k[]
*C:
*M4/4
4.c/
8e/
4g/
16f/LL
16e/
16d/
16c/JJ
=2
4.e/
16d/LL
16c/JJ
8d/L
8e/J
8.f/L
16g/Jk
=3
4.a/
8g/
8g/L
8e/
8c/
8e/J
=4
2d/
8r
16c/LL
16d/JJ
8e/L
8c/J
=5
8f/L
8g/J
8.a/L
16b/Jk
8cc\L
16b\L
16a\JJ
8g/L
8e/J
=6
!!linebreak:original
16cc/LL
16b/
16a/
16g/JJ
8a/L
16g/L
16f/JJ
4.e/
8c/
=7
4.A/
8B/
16c/LL
16d/
16e/
16f/JJ
8g/L
8a/J
=8
8g/L
16e/L
16c/JJ
8g/L
16f/L
16e/JJ
4.d/
8e/
=9
2d/
4c/
4r
==
*-
